!!!OTL: IM SCHWARZEN WALLFISCH
!!!ARE: Europa, Mitteleuropa, Deutschland
!!!SCT: F0492
!!!YEM: Copyright 1995, estate of Helmut Schaffrath.
**kern
*ICvox
*Ivox
*M6/8
*k[f#]
*G:
{8d
=1
8.g
16f#
8a
8.b
16a
8g
=2
8.a
16g
8a
8.cc
16b}
{8a
=3
8.e
16d#
8e
8.g
16f#
8e
=4
2b
8r}
{8dd
=5
4dd
8cc
4e
16cc
16cc
=6
4cc
8b
4d}
{8b
=7
4b
8a
4b
8cc
=8
[4.dd
4dd]}
{8dd
=9
4dd
8cc
4e
16cc
16cc
=10
4cc
8b
4d}
{8b
=11
4b
8a
4cc
8b
=12
2g
8r}
==
!!!AGN: Studenten -, Trink - Lied
!!!ONB: ESAC (Essen Associative Code) Database: FINK
!!!AMT: compound duple
!!!AIN: vox
!!!EED: Helmut Schaffrath
!!!EEV: 1.0
*-
